Adwaita++/devices/16/audio-speakers.svg

<svg height="16.063" width="16" xmlns="http://www.w3.org/2000/svg">
  <g fill="#474747">
    <path d="m1 5.063h2.484l2.97-3 .546.015v12l-.475.001-3.04-3.016h-2.485z"/>
    <path d="m8 5.063v-1.423l3.367-3.358c.404-.41 1.063-.346 1.412.023.332.351.375.988-.03 1.392l-3.357 3.366zm0 5.937v1.422l3.367 3.358c.404.412 1.063.347 1.412-.022a1.016 1.016 0 0 0 -.03-1.392l-3.357-3.366zm0-3.937v2h6c.75 0 .999-.501 1-1.002 0-.5-.25-.998-1-.998z"/>
  </g>
</svg>

<svg xmlns="http://www.w3.org/2000/svg" width="16" height="16.063">
    <g fill="#2e3436">
        <path d="M1 5.063h2.484l2.97-3L7 2.078v12l-.475.001-3.04-3.016H1z" style="marker:none" color="#bebebe" overflow="visible"/>
        <path d="M8 5.063V3.64L11.367.282c.404-.41 1.063-.346 1.412.023.332.351.375.988-.03 1.392L9.392 5.063zM8 11v1.422l3.367 3.358c.404.412 1.063.347 1.412-.022a1.016 1.016 0 0 0-.03-1.392L9.392 11zM8 7.063v2h6c.75 0 .999-.501 1-1.002 0-.5-.25-.998-1-.998z"/>
    </g>
</svg>
